resources/sync.svg

<svg viewBox="-3 0 24 24" id="meteor-icon-kit__solid-sync" fill="none" xmlns="http://www.w3.org/2000/svg"><g id="SVGRepo_bgCarrier" stroke-width="0"></g><g id="SVGRepo_tracerCarrier" stroke-linecap="round" stroke-linejoin="round"></g><g id="SVGRepo_iconCarrier"><path fill-rule="evenodd" clip-rule="evenodd" d="M7.7478 17.8691L7.4393 17.5607C6.85355 16.9749 6.85355 16.0251 7.4393 15.4393C8.0251 14.8536 8.9749 14.8536 9.5607 15.4393L12.5607 18.4393C13.1464 19.0251 13.1464 19.9749 12.5607 20.5607L9.5607 23.5607C8.9749 24.1464 8.0251 24.1464 7.4393 23.5607C6.85355 22.9749 6.85355 22.0251 7.4393 21.4393L7.9404 20.9383C3.46918 20.4139 0 16.6121 0 12C0 10.5942 0.32365 9.23154 0.93688 7.998C1.30566 7.25618 2.20598 6.95378 2.9478 7.32256C3.68961 7.69134 3.99202 8.59166 3.62324 9.33347C3.21516 10.1543 3 11.0602 3 12C3 14.8843 5.03517 17.2932 7.7478 17.8691zM9.1225 6.00123L9.5607 6.43934C10.1464 7.02513 10.1464 7.97487 9.5607 8.56066C8.9749 9.14645 8.0251 9.14645 7.4393 8.56066L4.43934 5.56066C3.85355 4.97487 3.85355 4.02513 4.43934 3.43934L7.4393 0.43934C8.0251 -0.146447 8.9749 -0.146447 9.5607 0.43934C10.1464 1.02513 10.1464 1.97487 9.5607 2.56066L9.1205 3.00079C14.0355 3.0653 18 7.06968 18 12C18 13.4805 17.641 14.9127 16.9639 16.1956C16.5773 16.9283 15.6699 17.2088 14.9372 16.8221C14.2046 16.4355 13.9241 15.5281 14.3107 14.7954C14.7614 13.9415 15 12.9896 15 12C15 8.72724 12.3797 6.06648 9.1225 6.00123z" fill="#e07440"></path></g></svg>

<svg viewBox="-3 0 24 24" fill="none" xmlns="http://www.w3.org/2000/svg"><path fill-rule="evenodd" clip-rule="evenodd" d="m7.748 17.87-.309-.31a1.5 1.5 0 0 1 2.122-2.12l3 3a1.5 1.5 0 0 1 0 2.12l-3 3a1.5 1.5 0 0 1-2.122-2.12l.501-.502A9 9 0 0 1 .937 7.998a1.5 1.5 0 0 1 2.686 1.335 6.002 6.002 0 0 0 4.125 8.536zM9.123 6l.438.438A1.5 1.5 0 0 1 7.439 8.56l-3-3a1.5 1.5 0 0 1 0-2.122l3-3A1.5 1.5 0 0 1 9.561 2.56L9.12 3a9 9 0 0 1 7.843 13.195 1.5 1.5 0 1 1-2.653-1.4 6 6 0 0 0-5.188-8.794z" fill="#e07440"/></svg>
